Hatter-kde-dark/actions/22/kt-set-max-upload-speed.svg

<?xml version="1.0" encoding="UTF-8"?>
<svg viewBox="0 0 22 22" xmlns="http://www.w3.org/2000/svg">
 <defs id="defs3051">
  <style id="current-color-scheme" type="text/css">.ColorScheme-Text {
        color:#dedede;
      }</style>
 </defs>
 <path class="ColorScheme-Text" d="m4 3v2h1v-1h12v1h1v-2h-1-12-1zm7 2-6 6.1836 0.79297 0.81641 5.207-5.3672 5.207 5.3672 0.79297-0.81641-6-6.1836zm-3 8v6h1 4 1v-6h-1v5h-4v-5h-1z" fill="currentColor"/>
</svg>

<svg xmlns="http://www.w3.org/2000/svg" viewBox="0 0 22 22">
  <defs id="defs3051">
    <style type="text/css" id="current-color-scheme">
      .ColorScheme-Text {
        color:#dedede;
      }
      </style>
  </defs>
 <path 
     style="fill:currentColor;fill-opacity:1;stroke:none" 
     d="M 4 3 L 4 5 L 5 5 L 5 4 L 17 4 L 17 5 L 18 5 L 18 3 L 17 3 L 5 3 L 4 3 z M 11 5 L 5 11.183594 L 5.7929688 12 L 11 6.6328125 L 16.207031 12 L 17 11.183594 L 11 5 z M 8 13 L 8 19 L 9 19 L 13 19 L 14 19 L 14 13 L 13 13 L 13 18 L 9 18 L 9 13 L 8 13 z "
     class="ColorScheme-Text"
     />
</svg>
